!!!COM: (Edward) Benjamin Britten
!!!OTL: [T805_Bri-w21p23m405-411]
**kern	**dynam	**kern	**dynam	**kern	**dynam	**kern	**dynam
*grp:A	*	*grp:A	*	*grp:B	*	*grp:B	*
*part4	*part4	*part3	*part3	*part2	*part2	*part1	*part1
*staff4	*	*staff3	*	*staff2	*	*staff1	*
*I"Violoncello	*	*I"Viola	*	*I"Violin II	*	*I"Violin I	*
*I'Vc.	*	*I'Vla.	*	*I'Vln. II	*	*I'Vln. I	*
*clefF4	*	*clefC3	*	*clefG2	*	*clefG2	*
*k[b-e-]	*	*k[b-e-]	*	*k[b-e-]	*	*k[b-e-]	*
*M5/4	*	*M5/4	*	*M5/4	*	*M5/4	*
=1	=1	=1	=1	=1	=1	=1	=1
!!LO:TX:t=[Poco animato [quarter]=78]
!	!	!	!	!	!LO:DY:t=[ %s legatis.]	!	!LO:DY:t=[ %s legatis.]
4r	.	4r	.	(8f#XL	pp	8aao)j	pp
.	.	.	.	8ddJ	.	8dv	.
!LO:TX:a:rj:t=pizz.	!LO:DY:b:t=%s pesante	!	!LO:DY:rj	!	!	!	!
4En~	p	(4En~>u	pp	8aao)	.	(8ff#XL	.
.	.	.	.	8dv	.	8aJ)	.
4E~	.	4E~>	.	(8ff#XL	.	(8f#XL	.
.	.	.	.	8aJ)	.	8ddJ	.
4E~	.	4E~>	.	(8f#L	.	8aao)	.
.	.	.	.	8ddJ	.	8dv	.
4E~	.	4E~>)	.	8aao)	.	(8ff#L	.
.	.	.	.	8dv	.	8aJ)	.
=2	=2	=2	=2	=2	=2	=2	=2
4r	.	4r	.	(8ff#XL	.	(8f#XL	.
.	.	.	.	8aJ)	.	8ddJ	.
4En~	.	(4En~>u	.	(8f#XL	.	8aao)	.
.	.	.	.	8ddJ	.	8dv	.
4E~	.	4E~>	.	8aao)	.	(8ff#XL	.
.	.	.	.	8dv	.	8aoJ)	.
4E~	.	4E~>	.	(8ff#L	.	(8f#L	.
.	.	.	.	8aJ)	.	8ddJ	.
4E~	.	4E~>)	.	(8f#L	.	8aa)	.
.	.	.	.	8ddJ	.	8dv	.
=3	=3	=3	=3	=3	=3	=3	=3
4r	.	4r	.	8aao)	.	(8ff#XL	.
.	.	.	.	8dv	.	8aJ)	.
4En	<	(4Env	<	(8ff#XL	.	(8f#XL	.
.	.	.	.	8aJ)	.	8ddJ	.
4.Bn	.	4.Bn	.	(8f#XL	<	8aao)	<
.	.	.	.	8ddJ	.	8av	.
.	.	.	.	8aa)	.	(8dddL	.
4.A	.	4.A)	.	8av	.	8ff#J)	.
.	.	.	.	(8ff#L	.	(8ddL	.
.	[[	.	[[	8dddJ)	[[	8aaJ	[[
=4	=4	=4	=4	=4	=4	=4	=4
4G#X	sf	[2.G#X	sf >	8ddv	f	8fff#X)	f
.	.	.	.	(8fff#X	.	8av	.
4r	.	.	.	8aa)	.	(8dddL	>
.	.	.	.	8av	>	8ff#XJ)	.
4r	.	.	.	(8dddL	.	(8f#XL	.
.	.	.	.	8ff#XJ)	.	8ddJ	.
2r	.	4G#]	.	(8f#XL	.	8aao)	.
.	.	.	.	8ddJ	.	8dv	.
.	.	4r	]	8aao)	.	(8ff#L	.
.	.	.	.	8dv	]	8aJ)	]
=5	=5	=5	=5	=5	=5	=5	=5
4r	.	4r	.	(8ff#XL	pp	(8f#XL	pp
.	.	.	.	8aJ)	.	8ddJ	.
4G#X~	mp	(4G#X~>	p	(8f#XL	.	8aao)	.
.	.	.	.	8ddJ	.	8dv	.
4G#~	.	4G#~>	.	8aao)	.	(8ff#XL	.
.	.	.	.	8dv	.	8aJ)	.
4G#~	.	4G#~>	.	(8ff#L	.	(8f#L	.
.	.	.	.	8aJ)	.	8ddJ	.
4G#~	.	4G#~>)	.	(8f#L	.	8aao)	.
.	.	.	.	8ddJ	.	8dv	.
!!LO:REH:t=410
=6	=6	=6	=6	=6	=6	=6	=6
!	!	!	!	!	!	!	!
4r	.	4r	.	8aa)	.	(8ff#XL	.
.	.	.	.	8dv	.	8aJ)	.
4Fn~	.	(4Fn~>	.	(8ff#XL	.	(8f#XL	.
.	.	.	.	8aJ)	.	8ddJ	.
4F~	.	4F~>	.	(8f#XL	.	8aao)	.
.	.	.	.	8ddJ	.	8dv	.
4F~	.	4F~>	.	8aao)	.	(8ff#L	.
.	.	.	.	8dv	.	8aJ)	.
4F~	.	4F~>)	.	(8ff#L	.	(8f#L	.
.	.	.	.	8aJ)	.	8ddJ	.
=7	=7	=7	=7	=7	=7	=7	=7
4r	.	4r	.	(8f#XL	.	8aao)	.
.	.	.	.	8ddJ	.	8dv	.
4E-X	.	4E-Xu	.	8aao)	.	(8ff#XL	.
.	.	.	.	8dv	.	8aJ)	.
4.E-	<	(4.E-v	<	(8ff#XL	<	(8f#XL	<
.	.	.	.	8aJ)	.	8ddJ	.
.	.	.	.	(8dL	.	8aao)	.
4.D-X	.	4.D-X)	.	8aJ	.	8f#v	.
.	.	.	.	8ff#)	.	(8ddL	.
.	[	.	[	8dv	.	8aaoJ)	.
=	=	=	=	=	=	=	=
*-	*-	*-	*-	*-	*-	*-	*-
!!!system-decoration: [(s1,s2,s3,s4)]
!!!RDF**kern: > = above
!!!RDF**kern: j = marked note, color="magenta", text="extra)"
!!!EED:Jason Lee
!!!EEV:2022/01/12
